X:18
T:Hpps simple chords 13
M:3/4
L:1/8
K:D
(3ABc [dD,F,A,]>A F>A | G>B A>G [FD,F,A,]>A | F>A G>B A>G | [FD,F,A,]>D F>D G>E | G>E [FD,F,A,]>D F>D |
E>(3AABc [dD,F,A,]>A | F>A G>B A>G | [FD,F,A,]>A F>A G>B | A>G [FD,F,A,]>A d>A |
f>e d>c [d2D,2F,2A,2] | f2 d2 (3ABc | [dD,F,A,]>A F>A G>B | A>G [FD,F,A,]>A F>A |
G>B A>G [FD,F,A,]>D | F>D G>E G>E | [FD,F,A,]>D F>D E>(3AAB |c [dD,F,A,]>A F>A |
G>B A>G [FD,F,A,]>A | F>A G>B A>G | [FD,F,A,]>A d>A f>e | d>c [d2D,2F,2A,2] f2 |
d2 c>d [eA,CEG]>c | A>c e>c g>e | [fD,F,A,]>d A>d f>d | a>f [eA,CE]>c A>c |
e>c g>f [eE,^G,B,D]>d | c>B A2 A2 | [BG,B,D]>G D>G B>G | d>B [AD,F,A,]>F D>F |
A>F d>A [BG,B,D]>d | c>B A>G F>E | [D2D,2F,2A,2] F2 D2 | c>d [eA,CEG]>c A>c |
e>c g>e [fD,F,A,]>d | A>d f>d a>f | [eA,CE]>c A>c e>c | g>f [eE,^G,B,D]>d c>B |
A2 A2 [BG,B,D]>G | D>G B>G d>B | [AD,F,A,]>F D>F A>F | d>A [BG,B,D]>d c>B |
A>G F>E [D2D,2F,2A,2] | F2 D2 |


